X: 107203
T: The WAKING O' THE FAULD
Q: "Strathspey."
R: Strathspey.
%R:strathspey
Z: 2017 by John Chambers <jc:trillian.mit.edu>
B: Kerr's Merrie Melodies v.1 p.7 s.2 #3
M: C
L: 1/8
K: Ador
(A>G) |\
E<A vA>uB A2 ug>ue | d>BA>G E2D>E |\
G>AB>A G<E vD>uE | G>AB>A G>ED>G |\
E<A A>B A2 G>A | B>AB>d e2g>a |\
b>ag>e (de/f/) g>B | vA>uG E<G A2-A |]
B |\
A<a a>b a2g>a | b2a>g e2d>e |\
g>ag>b G>AB>G | g/f/g/a/ g<b G>AB>G |\
A<a a>b a2g>f | e>d (e<g) a2g>a |\
(3(bag) (3(age) (de/f/) g>B | A>G E<G A2-A |]

%%sep 1 1 500
%%sep 1 1 500

